X:2
T:K.V. 487/2
M:3/4
L:1/4
K:C major
V:1
(g2e) | f d d | z d/2e/2f/2d/2 | e c/2d/2e/2f/2 | (g2e) | {g}f dd | z d/2e/2f/2d/2 |
V:2
(e2c) | d GG | G, GG | c CC | C/2C/2E/2G/2c/2G/2 | d GG | G, GG |
V:1
c z z :: (d2e) | (cBc) | (f2e) | d (ag) | ^f3 | (gd) d | (_e2c) | +<(+ B c/2d/2e/2f/2 +<)+ |
V:2
C z z :: z3| +p+ (d2e) | (cBc) | f2e | _edc | B z G | ^F3 | G z z |
V:1
+f+ (g2e) | gdd | z +p+ d/2e/2f/2d/2 | e +<(+ c/2d/2e/2f/2 +<)+ | (g2e) | {g}f dd | z d/2e/2f/2d/2 | c z z ::
V:2
+f+ (e2c) | d GG | G, +p+ GG | c +<(+ CC +<)+ | C/2C/2E/2G/2c/2G/2 | d GG | G, GG | C z z ::
V:1
+mf+ e3 | (f2e) | ^d3 | e z z | c2 e- | e d a- | a g B | c z z ::
V:2
+mf+ c3 | d2 c- | cBA | G z z | E,3 | F,3 | G,3 | C, z z ::
V:1
+p+ (e2d) | (c2B) | (f2e) | (d2c) | eee | fdB | (AB) ^G | A z z :|]
V:2
(c2B) | (A2^G) | (d2c) | (B2A) | ccc | d z z | EEE | C z z :|]

